X:1076
M:3/8
L:1/8
Q:1/8=120
K:G
(B/c/)|dB`G|gec|dB`G|A2d/c/|Bdg|e2a/g/|    fdf|g2
g|     ge^c|dAa|ge^c|dfg   |afd|B2g/e/|{d}^cBc|d3-|d2
e|c>BA   |c2d|B>AG|z2d/d/|gGG|dD (d//e//d//c//)|

